X:107
T:Captive Waltz,The. RH.107
R:Waltz
S:Rev.R.Harrison’s MS,c1815,Cumbria
O:England
A:Temple Sowerby,Cumbria
Z:vmp.Simon Wilson. Review PJH, 2008.
M:3/8
L:1/16
Q:3/8=50
K:D
|:A>A|A4 d>d|d4 f>f|e2f2 e2|d2A2 A>A|!
A4 d>d|d4 f>f|e2f2 e2|d2z2:|!
|:e>e|e2f2 ^g2|a2b2 c’2|d’2c’2 b2|{d’}c’2b2 a2|!
e2f2^g2|a2b2c’2|d’2c’2b2|a2z2:|

